X:0634
T:La Belle Catherine.
M:2/4
L:1/16
Q:1/4=104
P:ABA
N:Aird uses a da capo
I: :: || DC
N:Aird prints a one-sharp signature
Z:Jack Campin * www.campin.me.uk * 2009
K:D
P:A
 A2 |d4  (fedf)|f2d2d2c2|B4   (efed)|c2A2A2A2| d4   (fedf)|f2d2`d2`c2 |B2e2  (dcBA) | d4 D2|]
P:B
(AG)|F2A2`A2G2 |F2A2A2G2|F2A2 (dede)|c2A2A2G2|(FGAB) A2G2 |F2A2 A2(Bc)|d3e {g}f2(ed)|Ha6   ||

